src/next/cmd/ko/sc_fontheight.svg

<svg height="16" viewBox="0 0 16 16" width="16" xmlns="http://www.w3.org/2000/svg" xmlns:xlink="http://www.w3.org/1999/xlink"><linearGradient id="a" gradientUnits="userSpaceOnUse" x1="69.333336" x2="69.333336" y1="110.93333" y2="-12.266666"><stop offset="0" stop-color="#1c1c1c"/><stop offset=".5" stop-color="#888"/><stop offset="1"/></linearGradient><linearGradient id="b" gradientTransform="matrix(.00049044 .99999988 -.99999988 .00049044 48.00673 5.961334)" gradientUnits="userSpaceOnUse" x1="113.15723" x2="39.268185" xlink:href="#c" y1="25.786163" y2="25.786163"/><linearGradient id="c"><stop offset="0" stop-color="#0968ef"/><stop offset="1" stop-color="#aecffc"/></linearGradient><linearGradient id="d" gradientTransform="matrix(.00049052 -.99999988 -.99999988 -.00049052 47.952917 119.83956)" gradientUnits="userSpaceOnUse" x1="113.15723" x2="39.268185" xlink:href="#c" y1="25.786163" y2="25.786163"/>



/&amp;amp;amp;amp;gt;<g transform="matrix(.125 0 0 .125 0 .010884)"><g fill-rule="evenodd"><path d="m104.53333 17.066667v93.866663h11.73334v-41.066663h11.73333v-11.733333h-11.73333v-41.066667zm-70.399997 5.866667v11.733333h46.933334c0 35.2-23.466667 58.666667-46.933334 58.666667v11.733326c35.2 0 58.666667-29.333327 58.666667-73.585418v-8.547908z" fill="url(#a)" stroke-width="5.866667"/><path d="m20.011777-.17415 19.98823 24.00981-3.9768 3.97288-12.02133-7.80464-.0538 27.796996-7.99999-.0039.0538-27.796996-11.82773 7.79292-4.174157-3.97689z" fill="url(#d)"/><path d="m20.06559 125.97505 19.988228-24.00981-3.976796-3.97288-12.021335 7.80464-.0538-29.797-7.999993.004.0538 29.797-11.827726-7.79302-4.174157 3.97689z" fill="url(#b)"/></g><path d="m8.001887 48v28h28v-28zm4 4h20v20h-20z" fill="#797979"/></g></svg>

<?xml version="1.0" encoding="UTF-8" standalone="no"?>
<svg
   xmlns:dc="http://purl.org/dc/elements/1.1/"
   xmlns:cc="http://creativecommons.org/ns#"
   xmlns:rdf="http://www.w3.org/1999/02/22-rdf-syntax-ns#"
   xmlns:svg="http://www.w3.org/2000/svg"
   xmlns="http://www.w3.org/2000/svg"
   xmlns:xlink="http://www.w3.org/1999/xlink"
   xmlns:sodipodi="http://sodipodi.sourceforge.net/DTD/sodipodi-0.dtd"
   xmlns:inkscape="http://www.inkscape.org/namespaces/inkscape"
   height="16"
   viewBox="0 0 16 16"
   width="16"
   version="1.1"
   id="svg26"
   sodipodi:docname="sc_fontheight.svg"
   inkscape:version="0.92.4 (unknown)"><metadata
   id="metadata32">
  <rdf:RDF>
    <cc:Work
       rdf:about="">
      <dc:format>image/svg+xml</dc:format>
      <dc:type
         rdf:resource="http://purl.org/dc/dcmitype/StillImage" />
      <dc:title></dc:title>
    </cc:Work>
  </rdf:RDF>
</metadata>
<defs
   id="defs30" />
<sodipodi:namedview
   pagecolor="#ffffff"
   bordercolor="#666666"
   borderopacity="1"
   objecttolerance="10"
   gridtolerance="10"
   guidetolerance="10"
   inkscape:pageopacity="0"
   inkscape:pageshadow="2"
   inkscape:window-width="1366"
   inkscape:window-height="706"
   id="namedview28"
   showgrid="true"
   inkscape:zoom="5.2149125"
   inkscape:cx="8.2067527"
   inkscape:cy="36.145154"
   inkscape:window-x="0"
   inkscape:window-y="0"
   inkscape:window-maximized="1"
   inkscape:current-layer="g881">
  <inkscape:grid
     type="xygrid"
     id="grid839" />
</sodipodi:namedview>
<linearGradient
   id="a"
   gradientUnits="userSpaceOnUse"
   x1="69.333336"
   x2="69.333336"
   y1="110.93333"
   y2="-12.266666">
  <stop
     offset="0"
     stop-color="#1c1c1c"
     id="stop2" />
  <stop
     offset=".5"
     stop-color="#888"
     id="stop4" />
  <stop
     offset="1"
     id="stop6" />
</linearGradient>
<linearGradient
   id="b"
   gradientTransform="rotate(89.9719,21.021236,26.995807)"
   gradientUnits="userSpaceOnUse"
   x1="113.15723"
   x2="39.268185"
   xlink:href="#c"
   y1="25.786163"
   y2="25.786163" />
<linearGradient
   id="c">
  <stop
     offset="0"
     stop-color="#0968ef"
     id="stop10" />
  <stop
     offset="1"
     stop-color="#aecffc"
     id="stop12" />
</linearGradient>
<linearGradient
   id="d"
   gradientTransform="matrix(4.9052e-4,-0.99999988,-0.99999988,-4.9052e-4,47.952917,119.83956)"
   gradientUnits="userSpaceOnUse"
   x1="113.15723"
   x2="39.268185"
   xlink:href="#c"
   y1="25.786163"
   y2="25.786163" />



/&amp;amp;amp;gt;<g
   id="g881"
   transform="matrix(0.125,0,0,0.125,0,0.01088438)">
  <path
     d="m 104.53333,17.066667 v 93.866663 h 11.73334 V 69.866667 H 128 V 58.133334 H 116.26667 V 17.066667 Z m -70.399997,5.866667 v 11.733333 h 46.933334 c 0,35.2 -23.466667,58.666667 -46.933334,58.666667 v 11.733326 c 35.2,0 58.666667,-29.333327 58.666667,-73.585418 v -8.547908 z"
     id="path16"
     style="fill:url(#a);fill-rule:evenodd;stroke-width:5.86666679"
     inkscape:connector-curvature="0" />
  <path
     d="m 20.011777,-0.17415 19.98823,24.00981 -3.9768,3.97288 -12.02133,-7.80464 -0.0538,27.796996 -7.99999,-0.0039 L 16.001887,20 4.174157,27.79292 0,23.81603 Z"
     id="path18"
     style="fill:url(#d);fill-rule:evenodd"
     inkscape:connector-curvature="0" />
  <path
     d="M 20.06559,125.97505 40.053818,101.96524 36.077022,97.99236 24.055687,105.797 24.001887,76 l -7.999993,0.004 0.0538,29.797 -11.827726,-7.79302 -4.174157,3.97689 z"
     id="path20"
     style="fill:url(#b);fill-rule:evenodd"
     inkscape:connector-curvature="0" />
  <path
     id="path24"
     d="m 8.001887,48 v 28 h 28 V 48 Z m 4,4 h 20 v 20 h -20 z"
     inkscape:connector-curvature="0"
     style="fill:#797979" />
</g>
</svg>
